;FLAVOR:Marlin
;TIME:10785
;Filament used: 7.85685m
;Layer height: 0.2
;MINX:55.28
;MINY:56.28
;MINZ:0.2
;MAXX:164.72
;MAXY:163.62
;MAXZ:25.2
;Generated with Cura_SteamEngine 4.2.1
M140 S60
M105
M190 S60
M104 S200
M105
M109 S200
M82 ;absolute extrusion mode
M201 X500.00 Y500.00 Z100.00 E5000.00 ;Setup machine max acceleration
M203 X500.00 Y500.00 Z10.00 E50.00 ;Setup machine max feedrate
M204 P500.00 R1000.00 T500.00 ;Setup Print/Retract/Travel acceleration
M205 X8.00 Y8.00 Z0.40 E5.00 ;Setup Jerk
M220 S100 ;Reset Feedrate
M221 S100 ;Reset Flowrate

G28 ;Home
;G29
M420 S1

G92 E0 ;Reset Extruder
G1 Z2.0 F3000 ;Move Z Axis up
G1 X10.1 Y20 Z0.28 F5000.0 ;Move to start position
G1 X10.1 Y200.0 Z0.28 F1500.0 E15 ;Draw the first line
G1 X10.4 Y200.0 Z0.28 F5000.0 ;Move to side a little
G1 X10.4 Y20 Z0.28 F1500.0 E30 ;Draw the second line
G92 E0 ;Reset Extruder
G1 Z2.0 F3000 ;Move Z Axis up
G92 E0
G92 E0
G1 F2700 E-5
;LAYER_COUNT:125
;LAYER:0
M107
G0 F6000 X56.481 Y67.009 Z0.2
;TYPE:SKIRT
G1 F2700 E0
G1 F1200 X57.543 Y66.147 E0.05004
G1 X59.656 Y64.391 E0.15056
G1 X61.693 Y62.596 E0.24989
G1 X63.705 Y60.721 E0.35051
G1 X64.745 Y59.694 E0.40399
G1 X64.782 Y59.659 E0.40585
G1 X65.27 Y59.192 E0.43056
G1 X65.663 Y58.871 E0.44913
G1 X66.101 Y58.616 E0.46767
G1 X66.574 Y58.433 E0.48623
G1 X67.258 Y58.307 E0.51167
G1 X70.067 Y58.099 E0.61472
G1 X72.788 Y57.826 E0.71478
G1 X75.528 Y57.473 E0.81585
G1 X78.239 Y57.045 E0.91626
G1 X80.959 Y56.537 E1.0175
G1 X81.874 Y56.353 E1.05164
G1 X82.42 Y56.29 E1.07175
G1 X82.739 Y56.281 E1.08343
G1 X82.83 Y56.28 E1.08676
G1 X91.839 Y56.28 E1.41636
G1 X92.537 Y56.29 E1.4419
G1 X93.042 Y56.338 E1.46046
G1 X93.533 Y56.463 E1.479
G1 X93.853 Y56.592 E1.49162
G1 X94.965 Y57.111 E1.53652
G1 X97.48 Y58.247 E1.63748
G1 X100.041 Y59.32 E1.73907
G1 X102.581 Y60.297 E1.83864
G1 X105.144 Y61.202 E1.93808
G1 X107.748 Y62.039 E2.03815
G1 X110.369 Y62.801 E2.13802
G1 X113.042 Y63.497 E2.23907
G1 X115.721 Y64.116 E2.33967
G1 X118.355 Y64.643 E2.43795
G1 X121.082 Y65.11 E2.53917
G1 X123.809 Y65.499 E2.63995
G1 X126.505 Y65.805 E2.73922
G1 X129.213 Y66.035 E2.83865
G1 X131.965 Y66.192 E2.9395
G1 X134.723 Y66.27 E3.04045
G1 X136.106 Y66.28 E3.09105
G1 X160.844 Y66.28 E3.99611
G1 X161.542 Y66.291 E4.02165
G1 X162.047 Y66.339 E4.04021
G1 X162.538 Y66.466 E4.05877
G1 X163.003 Y66.668 E4.07732
G1 X163.43 Y66.941 E4.09586
G1 X163.81 Y67.277 E4.11442
G1 X164.132 Y67.669 E4.13298
G1 X164.388 Y68.106 E4.15151
G1 X164.573 Y68.579 E4.17009
G1 X164.681 Y69.074 E4.18862
G1 X164.71 Y69.42 E4.20133
G1 X164.719 Y69.739 E4.213
G1 X164.72 Y69.83 E4.21633
G1 X164.72 Y76.839 E4.47277
G1 X164.71 Y77.537 E4.4983
G1 X164.662 Y78.042 E4.51686
G1 X164.537 Y78.533 E4.5354
G1 X164.335 Y78.999 E4.55398
G1 X164.063 Y79.427 E4.57254
G1 X163.598 Y79.925 E4.59746
G1 X163.171 Y80.295 E4.61814
G1 X161.079 Y82.139 E4.72016
G1 X159.084 Y83.998 E4.81993
G1 X157.132 Y85.924 E4.92026
G1 X155.234 Y87.907 E5.02068
G1 X153.404 Y89.93 E5.12049
G1 X151.605 Y92.033 E5.22174
G1 X149.915 Y94.132 E5.32033
G1 X148.258 Y96.31 E5.42045
G1 X146.637 Y98.567 E5.52212
G1 X145.129 Y100.8 E5.6207
G1 X144.786 Y101.341 E5.64414
G1 X144.761 Y101.379 E5.6458
G1 X144.197 Y102.241 E5.68349
G1 X144.094 Y102.389 E5.69009
G1 X143.676 Y102.956 E5.71586
G1 X142.063 Y105.206 E5.81715
G1 X140.516 Y107.498 E5.91831
G1 X139.057 Y109.797 E6.01793
G1 X137.657 Y112.15 E6.11811
G1 X136.327 Y114.533 E6.21795
G1 X135.047 Y116.99 E6.31931
G1 X133.869 Y119.413 E6.41788
G1 X132.734 Y121.929 E6.51886
G1 X131.683 Y124.443 E6.61856
G1 X130.676 Y127.056 E6.72101
G1 X129.791 Y129.572 E6.81859
G1 X128.949 Y132.193 E6.91931
G1 X128.187 Y134.813 E7.01913
G1 X127.495 Y137.482 E7.12001
G1 X126.885 Y140.131 E7.21946
G1 X126.336 Y142.86 E7.32131
G1 X125.885 Y145.51 E7.41966
G1 X125.5 Y148.216 E7.51965
G1 X125.186 Y150.995 E7.62197
G1 X124.961 Y153.657 E7.71971
G1 X124.806 Y156.404 E7.82038
G1 X124.728 Y159.156 E7.9211
G1 X124.709 Y160.439 E7.96805
G1 X124.661 Y160.944 E7.98661
G1 X124.535 Y161.435 E8.00515
G1 X124.333 Y161.9 E8.0237
G1 X124.061 Y162.328 E8.04225
G1 X123.725 Y162.708 E8.06081
G1 X123.333 Y163.03 E8.07937
G1 X122.896 Y163.287 E8.09792
G1 X122.423 Y163.471 E8.11649
G1 X121.928 Y163.58 E8.13503
G1 X121.58 Y163.609 E8.14781
G1 X121.261 Y163.618 E8.15948
G1 X121.17 Y163.619 E8.16281
G1 X64.801 Y163.619 E10.22514
G1 X59.215 Y163.62 E10.42951
G1 X59.174 Y163.62 E10.43101
G1 X58.469 Y163.611 E10.4568
G1 X57.964 Y163.564 E10.47536
G1 X57.472 Y163.439 E10.49393
G1 X57.007 Y163.239 E10.51245
G1 X56.578 Y162.967 E10.53104
G1 X56.198 Y162.632 E10.54957
G1 X55.875 Y162.241 E10.56812
G1 X55.617 Y161.804 E10.58669
G1 X55.431 Y161.333 E10.60522
G1 X55.321 Y160.837 E10.62381
G1 X55.291 Y160.482 E10.63684
G1 X55.282 Y160.162 E10.64855
G1 X55.281 Y160.071 E10.65188
G1 X55.28 Y118.319 E12.17943
G1 X55.28 Y118.273 E12.18111
G1 X55.308 Y116.303 E12.25319
G1 X55.308 Y113.545 E12.3541
G1 X55.282 Y112.344 E12.39805
G1 X55.281 Y112.274 E12.40061
G1 X55.28 Y70.174 E13.94089
G1 X55.28 Y70.126 E13.94264
G1 X55.29 Y69.461 E13.96697
G1 X55.338 Y68.956 E13.98553
G1 X55.464 Y68.464 E14.00411
G1 X55.666 Y67.999 E14.02266
G1 X55.938 Y67.571 E14.04122
G1 X56.274 Y67.192 E14.05975
G1 X56.481 Y67.009 E14.06986
G1 F2700 E9.06986
G1 F600 Z0.4
;MESH:Drone-Controller-Box-SingleParts-V2.stl
G0 F6000 X68.6 Y65.4 Z0.4
;TYPE:WALL-INNER
G1 F600 Z0.2
G1 F2700 E14.06986
G1 F1200 X68.6 Y62.6 E14.1723
G1 X75.4 Y62.6 E14.42108
G1 X75.4 Y65.4 E14.52352
G1 X68.6 Y65.4 E14.77231
G0 F6000 X68.16 Y65.84
G1 F1200 X68.16 Y62.16 E14.90695
G1 X75.84 Y62.16 E15.18793
G1 X75.84 Y65.84 E15.32257
G1 X68.16 Y65.84 E15.60355
G0 F6000 X67.72 Y66.28
;TYPE:WALL-OUTER
G1 F1200 X67.72 Y61.72 E15.77038
G1 X76.28 Y61.72 E16.08356
G1 X76.28 Y66.28 E16.25039
G1 X67.72 Y66.28 E16.56357
G1 F2700 E11.56357
G1 F600 Z0.4
G0 F6000 X69.03 Y64.97 Z0.4
;TYPE:SKIN
G1 F600 Z0.2
G1 F2700 E16.56357
G1 F1200 X69.03 Y63.03 E16.63454
G1 X74.97 Y63.03 E16.85187
G1 X74.97 Y64.97 E16.92284
G1 X69.03 Y64.97 E17.14017
G0 F6000 X69.771 Y64.793
G1 F1200 X69.205 Y64.227 E17.16945
G0 F6000 X69.205 Y63.604
G1 F1200 X70.393 Y64.793 E17.23094
G0 F6000 X71.016 Y64.793
G1 F1200 X69.428 Y63.206 E17.31308
G0 F6000 X70.05 Y63.206
G1 F1200 X71.638 Y64.793 E17.39522
G0 F6000 X72.26 Y64.793
G1 F1200 X70.673 Y63.206 E17.47733
G0 F6000 X71.295 Y63.206
G1 F1200 X72.882 Y64.793 E17.55945
G0 F6000 X73.505 Y64.793
G1 F1200 X71.917 Y63.206 E17.64158
G0 F6000 X72.539 Y63.206
G1 F1200 X74.127 Y64.793 E17.72372
G0 F6000 X74.749 Y64.793
G1 F1200 X73.162 Y63.206 E17.80583
G0 F6000 X73.784 Y63.206
G1 F1200 X74.793 Y64.215 E17.85804
G0 F6000 X74.793 Y63.592
G1 F1200 X74.406 Y63.206 E17.87804
G1 F2700 E12.87804
G1 F600 Z0.4
G0 F6000 X83.6 Y66.4 Z0.4
;TYPE:WALL-INNER
G1 F600 Z0.2
G1 F2700 E17.87804
G1 F1200 X83.6 Y60.6 E18.09024
G1 X91.4 Y60.6 E18.37561
G1 X91.4 Y66.4 E18.58781
G1 X83.6 Y66.4 E18.87318
G0 F6000 X83.16 Y66.84
G1 F1200 X83.16 Y60.16 E19.11758
G1 X91.84 Y60.16 E19.43514
G1 X91.84 Y66.84 E19.67954
G1 X83.16 Y66.84 E19.99711
G0 F6000 X82.72 Y67.28
;TYPE:WALL-OUTER
G1 F1200 X82.72 Y59.72 E20.2737
G1 X92.28 Y59.72 E20.62346
G1 X92.28 Y67.28 E20.90005
G1 X82.72 Y67.28 E21.24982
G1 F2700 E16.24982
G1 F600 Z0.4
G0 F6000 X84.03 Y65.97 Z0.4
;TYPE:SKIN
G1 F600 Z0.2
G1 F2700 E21.24982
G1 F1200 X84.03 Y61.03 E21.43055
G1 X90.97 Y61.03 E21.68446
G1 X90.97 Y65.97 E21.8652
G1 X84.03 Y65.97 E22.1191
G0 F6000 X84.461 Y65.794
G1 F1200 X84.205 Y65.537 E22.13238
G0 F6000 X84.205 Y64.915
G1 F1200 X85.084 Y65.794 E22.17786
G0 F6000 X85.706 Y65.794
G1 F1200 X84.205 Y64.292 E22.25554
G0 F6000 X84.205 Y63.67
G1 F1200 X86.328 Y65.794 E22.36542
G0 F6000 X86.95 Y65.794
G1 F1200 X84.205 Y63.048 E22.50747
G0 F6000 X84.205 Y62.426
G1 F1200 X87.573 Y65.794 E22.68173
G0 F6000 X88.195 Y65.794
G1 F1200 X84.205 Y61.803 E22.8882
G0 F6000 X84.229 Y61.206
G1 F1200 X88.817 Y65.794 E23.12559
G0 F6000 X89.439 Y65.794
G1 F1200 X84.852 Y61.206 E23.36295
G0 F6000 X85.474 Y61.206
G1 F1200 X90.062 Y65.794 E23.60034
G0 F6000 X90.684 Y65.794
G1 F1200 X86.096 Y61.206 E23.83772
G0 F6000 X86.718 Y61.206
G1 F1200 X90.793 Y65.28 E24.04854
G0 F6000 X90.793 Y64.658
G1 F1200 X87.341 Y61.206 E24.22715
G0 F6000 X87.963 Y61.206
G1 F1200 X90.793 Y64.036 E24.37357
G0 F6000 X90.793 Y63.414
G1 F1200 X88.585 Y61.206 E24.48782
G0 F6000 X89.207 Y61.206
G1 F1200 X90.793 Y62.791 E24.56985
G0 F6000 X90.793 Y62.169
G1 F1200 X89.83 Y61.206 E24.61968
G0 F6000 X90.452 Y61.206
G1 F1200 X90.793 Y61.547 E24.63732
G1 F2700 E19.63732
G1 F600 Z0.4
G0 F6000 X125.6 Y76.4 Z0.4
;TYPE:WALL-INNER
G1 F600 Z0.2
G1 F2700 E24.63732
G1 F1200 X125.6 Y70.6 E24.84952
G1 X160.4 Y70.6 E26.12272
G1 X160.4 Y76.4 E26.33492
G1 X125.6 Y76.4 E27.60812
G0 F6000 X125.16 Y76.84
G1 F1200 X125.16 Y70.16 E27.85251
G1 X160.84 Y70.16 E29.15791
G1 X160.84 Y76.84 E29.4023
G1 X125.16 Y76.84 E30.70769
G0 F6000 X124.72 Y77.28
;TYPE:WALL-OUTER
G1 F1200 X124.72 Y69.72 E30.98429
G1 X161.28 Y69.72 E32.32188
G1 X161.28 Y77.28 E32.59847
G1 X124.72 Y77.28 E33.93606
G1 F2700 E28.93606
G1 F600 Z0.4
G0 F6000 X126.03 Y75.97 Z0.4
;TYPE:SKIN
G1 F600 Z0.2
G1 F2700 E33.93606
G1 F1200 X126.03 Y71.03 E34.11679
G1 X159.97 Y71.03 E35.35853
G1 X159.97 Y75.97 E35.53926
G1 X126.03 Y75.97 E36.781
G0 F6000 X126.818 Y75.794
G1 F1200 X126.205 Y75.18 E36.81274
G0 F6000 X126.205 Y74.558
G1 F1200 X127.441 Y75.794 E36.87669
G0 F6000 X128.063 Y75.794
G1 F1200 X126.205 Y73.935 E36.97285
G0 F6000 X126.205 Y73.313
G1 F1200 X128.685 Y75.794 E37.10119
G0 F6000 X129.307 Y75.794
G1 F1200 X126.205 Y72.691 E37.26172
G0 F6000 X126.205 Y72.069
G1 F1200 X129.93 Y75.794 E37.45445
G0 F6000 X130.552 Y75.794
G1 F1200 X126.205 Y71.446 E37.67939
G0 F6000 X126.586 Y71.206
G1 F1200 X131.174 Y75.794 E37.91678
G0 F6000 X131.796 Y75.794
G1 F1200 X127.209 Y71.206 E38.15414
G0 F6000 X127.831 Y71.206
G1 F1200 X132.419 Y75.794 E38.39153
G0 F6000 X133.041 Y75.794
G1 F1200 X128.453 Y71.206 E38.62891
G0 F6000 X129.075 Y71.206
G1 F1200 X133.663 Y75.794 E38.8663
G0 F6000 X134.285 Y75.794
G1 F1200 X129.698 Y71.206 E39.10366
G0 F6000 X130.32 Y71.206
G1 F1200 X134.908 Y75.794 E39.34104
G0 F6000 X135.53 Y75.794
G1 F1200 X130.942 Y71.206 E39.57843
G0 F6000 X131.564 Y71.206
G1 F1200 X136.152 Y75.794 E39.81582
G0 F6000 X136.774 Y75.794
G1 F1200 X132.187 Y71.206 E40.05318
G0 F6000 X132.809 Y71.206
G1 F1200 X137.397 Y75.794 E40.29056
G0 F6000 X138.019 Y75.794
G1 F1200 X133.431 Y71.206 E40.52795
G0 F6000 X134.054 Y71.206
G1 F1200 X138.641 Y75.794 E40.76531
G0 F6000 X139.263 Y75.794
G1 F1200 X134.676 Y71.206 E41.00267
G0 F6000 X135.298 Y71.206
G1 F1200 X139.886 Y75.794 E41.24005
G0 F6000 X140.508 Y75.794
G1 F1200 X135.92 Y71.206 E41.47744
G0 F6000 X136.543 Y71.206
G1 F1200 X141.13 Y75.794 E41.7148
G0 F6000 X141.752 Y75.794
G1 F1200 X137.165 Y71.206 E41.95216
G0 F6000 X137.787 Y71.206
G1 F1200 X142.375 Y75.794 E42.18955
G0 F6000 X142.997 Y75.794
G1 F1200 X138.409 Y71.206 E42.42693
G0 F6000 X139.032 Y71.206
G1 F1200 X143.619 Y75.794 E42.66429
G0 F6000 X144.242 Y75.794
G1 F1200 X139.654 Y71.206 E42.90168
G0 F6000 X140.276 Y71.206
G1 F1200 X144.864 Y75.794 E43.13906
G0 F6000 X145.486 Y75.794
G1 F1200 X140.898 Y71.206 E43.37645
G0 F6000 X141.521 Y71.206
G1 F1200 X146.108 Y75.794 E43.61381
G0 F6000 X146.731 Y75.794
G1 F1200 X142.143 Y71.206 E43.8512
G0 F6000 X142.765 Y71.206
G1 F1200 X147.353 Y75.794 E44.08858
G0 F6000 X147.975 Y75.794
G1 F1200 X143.387 Y71.206 E44.32597
G0 F6000 X144.01 Y71.206
G1 F1200 X148.597 Y75.794 E44.56333
G0 F6000 X149.22 Y75.794
G1 F1200 X144.632 Y71.206 E44.80072
G0 F6000 X145.254 Y71.206
G1 F1200 X149.842 Y75.794 E45.0381
G0 F6000 X150.464 Y75.794
G1 F1200 X145.876 Y71.206 E45.27549
G0 F6000 X146.499 Y71.206
G1 F1200 X151.086 Y75.794 E45.51285
G0 F6000 X151.709 Y75.794
G1 F1200 X147.121 Y71.206 E45.75023
G0 F6000 X147.743 Y71.206
G1 F1200 X152.331 Y75.794 E45.98762
G0 F6000 X152.953 Y75.794
G1 F1200 X148.365 Y71.206 E46.22501
G0 F6000 X148.988 Y71.206
G1 F1200 X153.575 Y75.794 E46.46237
G0 F6000 X154.198 Y75.794
G1 F1200 X149.61 Y71.206 E46.69975
G0 F6000 X150.232 Y71.206
G1 F1200 X154.82 Y75.794 E46.93714
G0 F6000 X155.442 Y75.794
G1 F1200 X150.854 Y71.206 E47.17452
G0 F6000 X151.477 Y71.206
G1 F1200 X156.064 Y75.794 E47.41188
G0 F6000 X156.687 Y75.794
G1 F1200 X152.099 Y71.206 E47.64927
G0 F6000 X152.721 Y71.206
G1 F1200 X157.309 Y75.794 E47.88666
G0 F6000 X157.931 Y75.794
G1 F1200 X153.343 Y71.206 E48.12404
G0 F6000 X153.966 Y71.206
G1 F1200 X158.553 Y75.794 E48.3614
G0 F6000 X159.176 Y75.794
G1 F1200 X154.588 Y71.206 E48.59879
G0 F6000 X155.21 Y71.206
G1 F1200 X159.793 Y75.789 E48.83591
G0 F6000 X159.793 Y75.166
G1 F1200 X155.832 Y71.206 E49.04083
G0 F6000 X156.455 Y71.206
G1 F1200 X159.793 Y74.544 E49.21354
G0 F6000 X159.793 Y73.922
G1 F1200 X157.077 Y71.206 E49.35407
G0 F6000 X157.699 Y71.206
G1 F1200 X159.793 Y73.3 E49.46242
G0 F6000 X159.793 Y72.677
G1 F1200 X158.321 Y71.206 E49.53855
G0 F6000 X158.944 Y71.206
G1 F1200 X159.793 Y72.055 E49.58248
G0 F6000 X159.793 Y71.433
G1 F1200 X159.566 Y71.206 E49.59423
G1 F2700 E44.59423
G1 F600 Z0.4
G0 F6000 X125.6 Y99.4 Z0.4
;TYPE:WALL-INNER
G1 F600 Z0.2
G1 F2700 E49.59423
G1 F1200 X125.6 Y84.6 E50.1357
G1 X140.4 Y84.6 E50.67718
G1 X140.4 Y99.4 E51.21865
G1 X125.6 Y99.4 E51.76013
G0 F6000 X125.16 Y99.84
G1 F1200 X125.16 Y84.16 E52.3338
G1 X140.84 Y84.16 E52.90747
G1 X140.84 Y99.84 E53.48114
G1 X125.16 Y99.84 E54.05481
G0 F6000 X124.72 Y100.28
;TYPE:WALL-OUTER
G1 F1200 X124.72 Y83.72 E54.66068
G1 X141.28 Y83.72 E55.26654
G1 X141.28 Y100.28 E55.87241
G1 X124.72 Y100.28 E56.47828
G1 F2700 E51.47828
G1 F600 Z0.4
G0 F6000 X126.03 Y98.97 Z0.4
;TYPE:SKIN
G1 F600 Z0.2
G1 F2700 E56.47828
G1 F1200 X126.03 Y85.03 E56.98829
G1 X139.97 Y85.03 E57.4983
G1 X139.97 Y98.97 E58.00831
G1 X126.03 Y98.97 E58.51832
G0 F6000 X126.795 Y98.794
G1 F1200 X126.205 Y98.203 E58.54887
G0 F6000 X126.205 Y97.581
G1 F1200 X127.417 Y98.794 E58.61161
G0 F6000 X128.04 Y98.794
G1 F1200 X126.205 Y96.959 E58.70655
G0 F6000 X126.205 Y96.336
G1 F1200 X128.662 Y98.794 E58.8337
G0 F6000 X129.284 Y98.794
G1 F1200 X126.205 Y95.714 E58.99304
G0 F6000 X126.205 Y95.092
G1 F1200 X129.906 Y98.794 E59.18456
G0 F6000 X130.529 Y98.794
G1 F1200 X126.205 Y94.47 E59.40828
G0 F6000 X126.205 Y93.847
G1 F1200 X131.151 Y98.794 E59.66422
G0 F6000 X131.773 Y98.794
G1 F1200 X126.205 Y93.225 E59.95234
G0 F6000 X126.205 Y92.603
G1 F1200 X132.395 Y98.794 E60.27264
G0 F6000 X133.018 Y98.794
G1 F1200 X126.205 Y91.981 E60.62515
G0 F6000 X126.205 Y91.358
G1 F1200 X133.64 Y98.794 E61.00986
G0 F6000 X134.262 Y98.794
G1 F1200 X126.205 Y90.736 E61.42676
G0 F6000 X126.205 Y90.114
G1 F1200 X134.884 Y98.794 E61.87585
G0 F6000 X135.507 Y98.794
G1 F1200 X126.205 Y89.492 E62.35714
G0 F6000 X126.205 Y88.869
G1 F1200 X136.129 Y98.794 E62.87064
G0 F6000 X136.751 Y98.794
G1 F1200 X126.205 Y88.247 E63.41632
G0 F6000 X126.205 Y87.625
G1 F1200 X137.373 Y98.794 E63.99418
G0 F6000 X137.996 Y98.794
G1 F1200 X126.205 Y87.003 E64.60426
G0 F6000 X126.205 Y86.38
G1 F1200 X138.618 Y98.794 E65.24654
G0 F6000 X139.24 Y98.794
G1 F1200 X126.205 Y85.758 E65.92101
G0 F6000 X126.275 Y85.206
G1 F1200 X139.793 Y98.724 E66.62044
G0 F6000 X139.793 Y98.102
G1 F1200 X126.897 Y85.206 E67.28768
G0 F6000 X127.519 Y85.206
G1 F1200 X139.793 Y97.48 E67.92275
G0 F6000 X139.793 Y96.858
G1 F1200 X128.141 Y85.206 E68.52563
G0 F6000 X128.764 Y85.206
G1 F1200 X139.793 Y96.235 E69.09628
G0 F6000 X139.793 Y95.613
G1 F1200 X129.386 Y85.206 E69.63474
G0 F6000 X130.008 Y85.206
G1 F1200 X139.793 Y94.991 E70.14102
G0 F6000 X139.793 Y94.369
